!!!!SEGMENT: pl-wtm--iii-41-976--014_elsner-jozef--wesele-w-ojcowie-krakowiak.krn
!!!cenid: 18xx:4266
!!!COM: Elsner, Józef
!!!COM-rismID: pe30000957
!!!CDT: 1769/06/01-1854/04/18
!!!CNT: Polish
!!!GTL: Wesele w Ojcowie
!!!OTL: Krakowiak
!!!OMV: 014
!!!PDT:
!!!AGN:
!!!SMS-siglum: PL-Wtm
!!!SMS-shelfmark: III.41.976
!!!SMS-shelfwork: 001-014 G
!!!SMS-variant:
!!!SMS-altvar:
!!!NIFC-rismSourceID: 1001130735
!!!NIFC-rismChildID: 1001130735
!!!NIFC-islandoraID: pl-wtm:23143
!!!URL-pdf-islandora: https://repozytorium.nifc.pl/islandora/object/pl-wtm:23143/datastream/PDF/view
!!!URL-scan: https://polish.musicsources.pl/pl/lokalizacje/galeria/druki-muzyczne/17811/15 @EN{Scan on Polish Music Sources Website} @PL{Skany w portalu Dziedzictwo Muzyki Polskiej w otwartym dostępie}
!!!ONB-nifc: UWAGA: skan 15
!!!AIN: 2 piano
!!!key: G
**kern	**kern	**dynam
*part2	*part1	*part1
*staff2	*staff1	*
*I"[FORTEPIAN]	*I"[FORTEPIAN]	*
*I'	*I'	*
*Ipiano	*Ipiano	*
*ICklav	*ICklav	*
*clefF4	*clefG2	*
*k[f#]	*k[f#]	*
*G:	*G:	*
*M2/4	*M2/4	*
*>[A,A,B,B,C,C]	*>[A,A,B,B,C,C]	*
=1	=1	=1
*>A	*>A	*>A
*^	*	*
!LO:N:vis=2	!	!	!LO:DY:b:rj
8G\L	2G/	8bL 8g'\	f
8d 8B'\	.	8b 8g'\	.
8d 8B'\	.	8cc 8a'\	.
8dJ 8B'\	.	8ddJ 8b'\	.
=2	=2	=2	=2
!LO:N:vis=2	!	!	!
8G\L	2G/	8eeL 8cc'\	.
8d 8B'\	.	8ee 8cc'\	.
8d 8B'\	.	8dd 8b'\	.
8dJ 8B'\	.	8cc#XJ 8a#X'\	.
=3	=3	=3	=3
!LO:N:vis=2	!	!	!
8G\L	2G/	8ddL 8b'\	.
8d 8B'\	.	8ee 8cc'\	.
8d 8B'\	.	8dd 8b'\	.
8dJ 8B'\	.	8cc#XJ 8a#X'\	.
=4	=4	=4	=4
!LO:N:vis=8.	!	!	!
8G\L	4.G/	(4dd 4b^\	.
8d 8B\	.	.	.
8dJ 8B\	.	8b 8g/)	.
8r	8ryy	8r	.
=5	=5	=5	=5
!LO:N:vis=2	!	!	!
8F#\L	2F#/	8cc\	.
8d 8c\	.	(4a^\	.
8d 8c\	.	.	.
8dJ 8c\	.	16dd\LL	.
.	.	16cc\JJ)	.
!!LO:LB:g=original
=6	=6	=6	=6
!LO:N:vis=2	!	!	!
8G\L	2G/	(16b\LL	.
.	.	16cc\	.
8d 8B\	.	16dd\	.
.	.	16ee\JJ)	.
8d 8B\	.	8dd\L	.
8dJ 8B\	.	(16ee\L	.
.	.	16dd\JJ)	.
*v	*v	*	*
=7	=7	=7
8D\L	8cc'\L	.
8d 8c 8F#\	8b'\	.
8d 8c 8F#\	8a'\	.
8dJ 8c 8F#\	8dd'\J	.
=8	=8	=8
4d 4B 4G\	4b\	.
4G 4GG\	4g 4d 4B/	.
=9:|!|:	=9:|!|:	=9:|!|:
*>B	*>B	*>B
4C 4CC^/	4cc 4g 4e^\	.
!	!	!LO:DY:b:rj
4c 4G 4C^\	4ee 4g 4e^\	ff
=10	=10	=10
8C\L	(>4.g^/	.
8c 8G 8E\	.	.
8c 8G 8E\	.	.
8cJ 8G 8E\	16a\LL	.
.	16b\JJ)	.
=11	=11	=11
.	(<8qdd/	.
8C\L	8cc'\L)	.
8c 8G 8E\	8b'\	.
8c 8G 8E\	8a'\	.
8cJ 8G 8E\	8g'\J	.
!!LO:LB:g=original
=12	=12	=12
.	(<8qb/	.
8GG\L	8a'\L)	.
8B 8G 8Fn\	8g'\	.
8B 8G 8F\	8a'\	.
8BJ 8G 8F\	8b'\J	.
=13	=13	=13
4C 4CC^/	4cc 4g 4e^\	.
4c 4G 4C^\	4ee 4g 4e^\	.
=14	=14	=14
8DL 8DD\	8dd` 8b\	.
8B 8G 8D\	4gg 4b 4g^^\	sf
8B 8G 8D\	.	.
8BJ 8G 8D\	(16b\LL	.
.	16dd\JJ)	.
=15	=15	=15
8DL 8DD\	8cc'\L	.
8c 8F# 8D\	8b'\	.
8c 8F# 8D\	8a'\	.
8cJ 8F# 8D\	8dd'\J	.
=16	=16	=16
4B 4G\	4b\	.
4G 4GG\	4g 4d 4B/	.
=17:|!|:	=17:|!|:	=17:|!|:
*>C	*>C	*>C
8D'\L	(8.ccc\L	p
!	!LO:TX:b:i:t=dolce	!
8f#J 8d 8c\	.	.
.	16bb\Jk)	.
8F#'\L	8aa'\L	.
8f#J 8d 8c'\	8aa'\J	.
=18	=18	=18
8G'\L	8bb'\	.
8g 8d 8B'\	(4gg^\	.
8g 8d 8B'\	.	.
8gJ 8d 8B'\	16ff#\LL	.
.	16ee\JJ)	.
!!LO:LB:g=original
=19	=19	=19
8A'\L	(16dd\LL	.
.	16ee\	.
8f#J 8d 8c'\	16ff#\	.
.	16gg\JJ)	.
8D'\L	8aa'\L	.
8dJ 8c 8A'\	8ff#'\J	.
=20	=20	=20
*^	*	*
!LO:N:vis=8.	!	!	!
8G\L	4.G/	8gg'\	.
8d' 8B'\	.	(4bb^\	.
8d'J 8B'\	.	.	.
8r	8ryy	16eee\LL	.
.	.	16ddd\JJ)	.
*v	*v	*	*
=21	=21	=21
8A\L	(16ccc\LL	.
.	16ddd\	.
8f#J 8d 8c\	16ccc\	.
.	16bb\JJ)	.
8F#\L	8aa\L	.
8f#J 8d 8c\	8ddd'\J	.
=22	=22	=22
8G'\L	8bb'\	.
8g 8d 8B'\	(4gg'^\	.
8g 8d 8B'\	.	.
8gJ 8d 8B'\	16ff#\LL	.
.	16ee\JJ)	.
=23	=23	=23
8D'\L	(16dd\LL	.
.	16ee\	.
8d 8c 8A'\	16ff#\	.
.	16gg\JJ	.
8d 8c 8A'\	8aa'\L)	.
8dJ 8c 8A'\	8ff#'\J	.
=24	=24	=24
8d 8B 8G'\	8gg'\	.
8r	8r	.
4G 4GG\	4gg 4dd 4b 4g\	.
=:|!	=:|!	=:|!
*-	*-	*-
!!!system-decoration: {(s1,s2)}
!!!RDF**kern: > = above
!!!RDF**kern: < = below
!!!ENC: Berenika Jozajtis
!!!END: 2022-11-28
!!!ENC: Katarzyna Serwa
!!!END: 2022-12-07
!!!YEC: Copyright 2022 Narodowy Instytut Fryderyka Chopina (https://polishscores.org)
!!!YEM: License CC-BY-4.0 (https://creativecommons.org/licenses/by/4.0)
